assets/icons/image/missing.svg

<?xml version="1.0" encoding="UTF-8" standalone="no"?>
<svg
   viewBox="0 0 24 24"
   height="24"
   id="svg7384"
   version="1.1"
   width="24"
   sodipodi:docname="missing.svg"
   inkscape:version="1.2 (1:1.2.1+202207142221+cd75a1ee6d)"
   xmlns:inkscape="http://www.inkscape.org/namespaces/inkscape"
   xmlns:sodipodi="http://sodipodi.sourceforge.net/DTD/sodipodi-0.dtd"
   xmlns="http://www.w3.org/2000/svg"
   xmlns:svg="http://www.w3.org/2000/svg"
   xmlns:rdf="http://www.w3.org/1999/02/22-rdf-syntax-ns#"
   xmlns:cc="http://creativecommons.org/ns#"
   xmlns:dc="http://purl.org/dc/elements/1.1/">
  <sodipodi:namedview
     id="namedview23"
     pagecolor="#ffffff"
     bordercolor="#666666"
     borderopacity="1.0"
     inkscape:pageshadow="2"
     inkscape:pageopacity="0.0"
     inkscape:pagecheckerboard="0"
     showgrid="true"
     inkscape:zoom="14"
     inkscape:cx="-8.9642857"
     inkscape:cy="5.8928571"
     inkscape:window-width="1920"
     inkscape:window-height="1016"
     inkscape:window-x="0"
     inkscape:window-y="0"
     inkscape:window-maximized="1"
     inkscape:current-layer="svg7384"
     inkscape:showpageshadow="2"
     inkscape:deskcolor="#d1d1d1">
    <inkscape:grid
       type="xygrid"
       id="grid24" />
    <inkscape:grid
       type="xygrid"
       id="grid841"
       dotted="true"
       spacingx="0.5"
       spacingy="0.5"
       empspacing="10" />
  </sodipodi:namedview>
  <metadata
     id="metadata20854">
    <rdf:RDF>
      <cc:Work
         rdf:about="">
        <dc:format>image/svg+xml</dc:format>
        <dc:type
           rdf:resource="http://purl.org/dc/dcmitype/StillImage" />
      </cc:Work>
    </rdf:RDF>
  </metadata>
  <defs
     id="defs7386">
    <linearGradient
       id="linearGradient5606"
       inkscape:swatch="solid">
      <stop
         id="stop5608"
         offset="0"
         style="stop-color:#000000;stop-opacity:1;" />
    </linearGradient>
    <linearGradient
       id="linearGradient4526"
       inkscape:swatch="solid">
      <stop
         id="stop4528"
         offset="0"
         style="stop-color:#ffffff;stop-opacity:1;" />
    </linearGradient>
    <linearGradient
       id="linearGradient3600-4"
       inkscape:swatch="gradient">
      <stop
         id="stop3602-7"
         offset="0"
         style="stop-color:#f4f4f4;stop-opacity:1" />
      <stop
         id="stop3604-6"
         offset="1"
         style="stop-color:#dbdbdb;stop-opacity:1" />
    </linearGradient>
  </defs>
  <g
     id="layer9"
     label="status"
     style="display:inline;stroke-width:0.809017;fill:#808080;fill-opacity:1"
     transform="matrix(1.2360674,0,0,1.2360674,-681.5449,257.97741)" />
  <g
     id="layer2"
     style="display:inline;stroke-width:0.809017;fill:#808080;fill-opacity:1"
     transform="matrix(1.2360674,0,0,1.2360674,-383.65241,-195.65932)" />
  <g
     id="g1812"
     style="display:inline;stroke-width:0.809017;fill:#808080;fill-opacity:1"
     transform="matrix(1.2360674,0,0,1.2360674,-383.65241,-195.65932)" />
  <g
     id="g6217"
     style="display:inline;stroke-width:0.809017;fill:#808080;fill-opacity:1"
     transform="matrix(1.2360674,0,0,1.2360674,-383.65241,-195.65932)" />
  <g
     id="layer3"
     style="display:inline;stroke-width:0.809017;fill:#808080;fill-opacity:1"
     transform="matrix(1.2360674,0,0,1.2360674,-383.65241,-195.65932)" />
  <g
     id="g1833"
     style="display:inline;stroke-width:0.809017;fill:#808080;fill-opacity:1"
     transform="matrix(1.2360674,0,0,1.2360674,-383.65241,-195.65932)" />
  <g
     id="layer1"
     style="display:inline;stroke-width:0.809017;fill:#808080;fill-opacity:1"
     transform="matrix(1.2360674,0,0,1.2360674,-383.65241,-195.65932)" />
  <path
     id="path3446"
     style="color:#000000;fill:#808080;-inkscape-stroke:none;fill-opacity:1"
     d="M 6 3 C 4.9583354 3 4.0016946 3.1146082 3.2421875 3.5703125 C 2.4826804 4.0260168 2 4.8750022 2 6 L 2 18 C 2 19.124998 2.4826804 19.973984 3.2421875 20.429688 C 4.0016946 20.885392 4.9583354 21 6 21 L 11.980469 21 C 11.333053 21 10.64293 20.731726 10.212891 20.253906 C 9.8151904 19.813441 9.5825281 19.195228 9.5800781 18.603516 C 9.5718983 18.014995 9.7805528 17.445504 10.162109 17 L 3 17 L 3 6 C 3 5.1250018 3.2673222 4.7239817 3.7578125 4.4296875 C 4.2483028 4.1353933 5.0416686 4 6 4 L 8.2207031 4 L 8.2480469 3.9804688 L 8.3105469 3.9472656 C 8.8702201 3.661578 9.4588518 3.4377435 10.066406 3.2773438 L 10.072266 3.2753906 L 10.074219 3.2753906 C 10.793454 3.0906595 11.547994 3.0004862 12.332031 3 L 6 3 z M 11.980469 21 L 18 21 C 19.041665 21 19.998306 20.885392 20.757812 20.429688 C 21.51732 19.973984 22 19.124998 22 18 L 22 6 C 22 4.8750022 21.51732 4.0260168 20.757812 3.5703125 C 19.998306 3.1146082 19.041665 3 18 3 L 12.341797 3 C 13.26795 3 14.067919 3.1255024 14.765625 3.4316406 L 14.761719 3.4238281 C 14.766629 3.4258081 14.768538 3.4296506 14.773438 3.4316406 C 14.779407 3.4342806 14.789022 3.4328869 14.794922 3.4355469 L 15.423828 3.7167969 L 15.423828 3.8671875 C 15.499879 3.9128354 15.578101 3.9564862 15.65625 4 L 18 4 C 18.958331 4 19.751698 4.1353933 20.242188 4.4296875 C 20.732678 4.7239817 21 5.1250018 21 6 L 21 17 L 13.804688 17 C 14.169486 17.436565 14.388672 18.027184 14.388672 18.59375 C 14.388671 19.187743 14.150915 19.809882 13.75 20.253906 C 13.318523 20.733058 12.625712 21 11.980469 21 z " />
  <path
     d="m 12.339234,4.0582893 c -0.705524,0 -1.372661,0.080745 -2.001412,0.2422344 a 7.747529,7.747529 0 0 0 -1.5447401,0.5903636 l -0.8709848,0.6062478 0.7492058,1.1595481 0.5983057,-0.4447582 c 0.9106954,-0.4632898 1.8452164,-0.7147899 2.8009174,-0.7147899 0.803477,0 1.442817,0.2117896 1.880957,0.6499294 0.432845,0.4182845 0.652576,0.9755559 0.652576,1.6360748 0,0.411666 -0.09663,0.7981821 -0.287239,1.1489587 -0.172079,0.3415107 -0.395782,0.6658136 -0.672432,0.9742322 -0.271356,0.3004768 -0.555948,0.6022768 -0.857748,0.9027528 v 0.0013 a 8.4609953,8.4609953 0 0 0 -0.837893,0.92658 l -0.0014,0.0026 a 4.8446876,4.8446876 0 0 0 -0.651253,1.040417 3.1477232,3.1477232 0 0 0 -0.234292,1.237645 c 0,0.275327 0.03177,0.533445 0.07413,0.786269 h 1.44017 c -0.0014,-0.03045 -0.01324,-0.05824 -0.01324,-0.09001 v -0.247529 c 0,-0.512267 0.101924,-0.979527 0.307095,-1.38987 0.198553,-0.415637 0.444758,-0.792887 0.737292,-1.131751 l 0.0026,-0.0026 c 0.288563,-0.349453 0.606248,-0.681698 0.954377,-0.999382 a 9.5702435,9.5702435 0 0 0 0.926579,-0.9715852 c 0.277974,-0.3348923 0.508295,-0.6909636 0.697582,-1.0682139 0.182669,-0.3812213 0.276651,-0.8114189 0.276651,-1.2998588 a 4.0504765,4.0504765 0 0 0 -0.194582,-1.2098482 l -0.0013,-0.00265 v -0.00265 a 2.7003177,2.7003177 0 0 0 -0.638016,-1.147635 c -0.309742,-0.3375397 -0.730674,-0.6168373 -1.266767,-0.8339216 v -0.00265 c -0.509618,-0.2276738 -1.184698,-0.3454818 -2.022591,-0.3454818 z m -0.357395,13.1878747 c -0.431521,0 -0.743911,0.132369 -0.983498,0.397106 a 1.3567773,1.3567773 0 0 0 -0.364013,0.950406 c 0,0.369308 0.117808,0.677726 0.364013,0.950406 0.238263,0.264737 0.551977,0.397105 0.982174,0.397105 0.430198,0 0.743911,-0.131045 0.983498,-0.397105 0.246206,-0.27268 0.364014,-0.582422 0.364014,-0.950406 0,-0.370632 -0.117808,-0.677727 -0.364014,-0.950406 -0.238263,-0.264737 -0.5533,-0.397106 -0.983498,-0.397106 z"
     font-family="Ubuntu"
     font-size="72.036px"
     font-weight="500"
     letter-spacing="0"
     style="line-height:125%;-inkscape-font-specification:'Ubuntu Medium';text-align:center;fill:#808080;fill-opacity:1;stroke-width:1"
     text-anchor="middle"
     word-spacing="0"
     id="path4" />
</svg>

<svg height="24" width="24" xmlns="http://www.w3.org/2000/svg"><path style="color:#000;fill:gray;-inkscape-stroke:none;fill-opacity:1" d="M6 3c-1.042 0-1.998.115-2.758.57C2.482 4.026 2 4.875 2 6v12c0 1.125.483 1.974 1.242 2.43.76.455 1.716.57 2.758.57h5.98c-.647 0-1.337-.268-1.767-.746a2.54 2.54 0 0 1-.633-1.65c-.008-.589.2-1.158.582-1.604H3V6c0-.875.267-1.276.758-1.57C4.248 4.135 5.042 4 6 4h2.22l.028-.02.063-.033a8.803 8.803 0 0 1 1.755-.67l.006-.002h.002A9.075 9.075 0 0 1 12.332 3H6zm5.98 18H18c1.042 0 1.998-.115 2.758-.57C21.518 19.974 22 19.125 22 18V6c0-1.125-.483-1.974-1.242-2.43C19.998 3.115 19.042 3 18 3h-5.658c.926 0 1.726.126 2.424.432l-.004-.008c.005.002.007.006.011.008.006.002.016 0 .022.004l.629.28v.151c.076.046.154.09.232.133H18c.958 0 1.752.135 2.242.43.49.294.758.695.758 1.57v11h-7.195c.364.437.584 1.027.584 1.594 0 .594-.238 1.216-.639 1.66-.431.48-1.124.746-1.77.746z"/><path d="M12.34 4.058c-.706 0-1.373.081-2.002.243a7.748 7.748 0 0 0-1.545.59l-.87.606.748 1.16.599-.445c.91-.463 1.845-.715 2.8-.715.804 0 1.443.212 1.881.65.433.418.653.976.653 1.636 0 .412-.097.798-.287 1.15a4.472 4.472 0 0 1-.673.973c-.271.3-.556.603-.857.903v.001a8.461 8.461 0 0 0-.838.927l-.002.003a4.845 4.845 0 0 0-.65 1.04 3.148 3.148 0 0 0-.235 1.238c0 .275.032.533.074.786h1.44c-.001-.03-.013-.058-.013-.09v-.248c0-.512.102-.98.307-1.39a5.11 5.11 0 0 1 .737-1.131l.003-.003c.288-.35.606-.682.954-1a9.57 9.57 0 0 0 .927-.97c.278-.336.508-.692.697-1.069.183-.381.277-.811.277-1.3a4.05 4.05 0 0 0-.195-1.21v-.005a2.7 2.7 0 0 0-.639-1.148c-.31-.337-.73-.617-1.267-.834v-.002c-.51-.228-1.184-.346-2.022-.346zm-.358 13.188c-.432 0-.744.133-.984.397a1.357 1.357 0 0 0-.364.95c0 .37.118.678.364.951.239.265.552.397.983.397.43 0 .743-.13.983-.397.246-.273.364-.582.364-.95a1.35 1.35 0 0 0-.364-.95c-.238-.265-.553-.398-.983-.398z" font-family="Ubuntu" font-size="72.036" font-weight="500" letter-spacing="0" style="line-height:125%;-inkscape-font-specification:'Ubuntu Medium';text-align:center;fill:gray;fill-opacity:1;stroke-width:1" text-anchor="middle" word-spacing="0"/></svg>
